assets/luts/Cinematic_OrangeTeal.cube
# Placeholder LUT file for Cinematic Orange-Teal
TITLE "Cinematic_OrangeTeal"
LUT_1D_SIZE 2
DOMAIN_MIN 0.0 0.0 0.0
DOMAIN_MAX 1.0 1.0 1.0
0.0 0.0 0.0
1.0 0.95 0.9
